X:19
T:Steyrer Tanz in F, nr. 39 - Clarinetto oder Violin -
C:traditionell
R:Steirer
A:Hallstatt, Salzkammergut
B:Corpus Musicae Popularis Austriacae (COMPA), 5.Band: J.M.Schmalnauer " Tanz Musik", Verlag Boehlau, Wien 1996
S:manuscript des Johann Michael Schmalnauer um 1820
N:im der quelle in F, s. 55 nr. 39
N:um1800
M:3/4
L:1/8
K:F
V:1
ac Tf2 ac | egbceg | bcegbc | f2 ac f2 |\
ac Tf2 ac | egbceg | bcegbc | f4 :|
V:2
FAcAFA | GBcBGB | cBGBcB | AcfcAc |\
FAcAFA | GBcBGB | cBGBcB | A4 :|
V:2
"oder"\
fc A2 cA | cegece | gecege | A2 fc A2 |\
fc A2 cA | cegece | gecege | A4 :|
